X: 12289
T: Fairy Jig, The
R: slip jig
M: 9/8
K: Dmixolydian
|:ABG Add Add|ABG Add fAg|
A2G Add Add|cAG ABG FED:|
|:abg add add|abg add bag||
[1 abg add add|cAG ABG FED|
[2 a2a baf gag|fed cAG FED||

